file/spirit-airlines.svg

<svg clip-rule="evenodd" fill-rule="evenodd" stroke-linejoin="round" stroke-miterlimit="1.41421" viewBox="0 0 560 400" xmlns="http://www.w3.org/2000/svg"><path d="m348.3 121.7h14.5l-3.1 14.5h-14.5l-4.8 22.5c-1.1 5.1 0 5.8 5.9 5.8 2.7 0 4.9-.1 7.8-.2l-2.9 13.6c-4.6.6-10.4 1-16.9 1-14.3 0-19.4-3.5-16.8-15.6l5.8-27.2h-11.5l3-14.4h11.5l3.8-17.8h21.9zm-75.1 56h21.9l11.9-56h-21.9zm13.3-62.4h21.9l2.8-13.2h-21.9zm-59.4 6.4-11.9 56h21.3l11.9-56zm50.7-2.4c-1.4-.1-2.8-.2-4.1-.2-9.8 0-25.4 9.6-29.5 26.8l-1.1 3.9h.4c3.1-7.4 10.9-11.4 21.4-11.4 2.8 0 6.1.4 8.6 1zm-81.7 2.4-11.9 56h21.9l11.9-56zm26.1-19.7h-21.9l-2.8 13.2h21.9zm-39.3 48.6c-3.4 16.2-18.2 29.3-38.8 29.3-9.7 0-16.5-3.2-19.3-7.3h-.2l-5.4 25.3h-21.9l16.2-76.3h21.3l-1.6 7.4h.2c5.9-5.7 14.3-8.9 23.2-8.9 19.8.1 30.4 11.1 26.3 30.5zm-34.8-15.1c-10.3 0-16.8 5.6-18.6 14.3-1.9 8.7 2.3 14.2 12.6 14.2 10 0 16.6-5 18.5-14.2 1.9-9.3-2.5-14.3-12.5-14.3zm-67.6 7.8-18.5-2.1c-5.4-.6-6.6-2.2-6.2-3.9.8-3.8 4.8-5.3 11.2-5.3 2.8 0 5.6.3 7.6 1.3 2 .8 3.2 2.4 2.9 4.7h24.6c2.2-15.9-16.1-18.6-31-18.6-21 0-35 4.8-38.2 20-2 9.5 3.5 14.1 16 15.6l19.1 2.4c5.3.6 7.3 1.5 6.6 4.4-.9 4-6.2 5-11.1 5-4.8 0-7.6-.6-9.3-1.7s-2.2-2.7-2.1-4.8h-25.6c-3.1 17 17.3 19.7 32.8 19.7 23.3 0 37.2-6.2 40-19.4 2.4-11-4.1-15.7-18.8-17.3zm290-16.7 1 1.8h-1.2l-.7-1.5h-.8v1.5h-1.2v-4.6h1.9c.5 0 .9.1 1.3.4.4.2.5.6.5 1.2 0 .3-.1.5-.2.7s-.3.4-.6.5zm-.4-1.2c0-.2-.1-.4-.2-.5s-.4-.2-.6-.2h-.5v1.4h.5c.3 0 .5-.1.6-.2s.2-.3.2-.5zm3.7.8c0 .7-.1 1.3-.4 1.8-.2.5-.5 1-.9 1.5-.4.4-.9.7-1.4.9s-1.1.3-1.7.3-1.2-.1-1.7-.3-1-.5-1.4-.9-.7-.9-.9-1.5c-.2-.5-.4-1.2-.4-1.8 0-.7.1-1.3.4-1.9.2-.6.5-1.1.9-1.5s.9-.7 1.4-.9 1.1-.3 1.7-.3 1.2.1 1.7.3 1 .5 1.4.9.7.9.9 1.5c.3.6.4 1.2.4 1.9zm-1.1 0c0-.5-.1-1-.3-1.5s-.4-.8-.7-1.2c-.3-.3-.6-.6-1.1-.7-.4-.2-.9-.3-1.3-.3-.5 0-.9.1-1.4.3-.4.2-.8.4-1.1.7s-.5.7-.7 1.2-.3.9-.3 1.5c0 .5.1 1 .3 1.5.2.4.4.8.7 1.1s.6.5 1.1.7c.4.2.9.3 1.4.3s.9-.1 1.3-.3.8-.4 1.1-.7.5-.7.7-1.1c.2-.5.3-1 .3-1.5z" fill-rule="nonzero" transform="matrix(1.03563 0 0 1.03563 72.8825 44.7077)"/></svg>

<?xml version="1.0" encoding="UTF-8" standalone="no"?>
<!DOCTYPE svg PUBLIC "-//W3C//DTD SVG 1.1//EN" "http://www.w3.org/Graphics/SVG/1.1/DTD/svg11.dtd">
<svg width="100%" height="100%" viewBox="0 0 560 400" version="1.1" xmlns="http://www.w3.org/2000/svg" xmlns:xlink="http://www.w3.org/1999/xlink" xml:space="preserve" xmlns:serif="http://www.serif.com/" style="fill-rule:evenodd;clip-rule:evenodd;stroke-linejoin:round;stroke-miterlimit:1.41421;">
    <g id="black" transform="matrix(1.03563,0,0,1.03563,72.8825,44.7077)">
        <path d="M348.3,121.7L362.8,121.7L359.7,136.2L345.2,136.2L340.4,158.7C339.3,163.8 340.4,164.5 346.3,164.5C349,164.5 351.2,164.4 354.1,164.3L351.2,177.9C346.6,178.5 340.8,178.9 334.3,178.9C320,178.9 314.9,175.4 317.5,163.3L323.3,136.1L311.8,136.1L314.8,121.7L326.3,121.7L330.1,103.9L352,103.9L348.3,121.7ZM273.2,177.7L295.1,177.7L307,121.7L285.1,121.7L273.2,177.7ZM286.5,115.3L308.4,115.3L311.2,102.1L289.3,102.1L286.5,115.3ZM227.1,121.7L215.2,177.7L236.5,177.7L248.4,121.7L227.1,121.7ZM277.8,119.3C276.4,119.2 275,119.1 273.7,119.1C263.9,119.1 248.3,128.7 244.2,145.9L243.1,149.8L243.5,149.8C246.6,142.4 254.4,138.4 264.9,138.4C267.7,138.4 271,138.8 273.5,139.4L277.8,119.3ZM196.1,121.7L184.2,177.7L206.1,177.7L218,121.7L196.1,121.7ZM222.2,102L200.3,102L197.5,115.2L219.4,115.2L222.2,102ZM182.9,150.6C179.5,166.8 164.7,179.9 144.1,179.9C134.4,179.9 127.6,176.7 124.8,172.6L124.6,172.6L119.2,197.9L97.3,197.9L113.5,121.6L134.8,121.6L133.2,129L133.4,129C139.3,123.3 147.7,120.1 156.6,120.1C176.4,120.2 187,131.2 182.9,150.6ZM148.1,135.5C137.8,135.5 131.3,141.1 129.5,149.8C127.6,158.5 131.8,164 142.1,164C152.1,164 158.7,159 160.6,149.8C162.5,140.5 158.1,135.5 148.1,135.5ZM80.5,143.3L62,141.2C56.6,140.6 55.4,139 55.8,137.3C56.6,133.5 60.6,132 67,132C69.8,132 72.6,132.3 74.6,133.3C76.6,134.1 77.8,135.7 77.5,138L102.1,138C104.3,122.1 86,119.4 71.1,119.4C50.1,119.4 36.1,124.2 32.9,139.4C30.9,148.9 36.4,153.5 48.9,155L68,157.4C73.3,158 75.3,158.9 74.6,161.8C73.7,165.8 68.4,166.8 63.5,166.8C58.7,166.8 55.9,166.2 54.2,165.1C52.5,164 52,162.4 52.1,160.3L26.5,160.3C23.4,177.3 43.8,180 59.3,180C82.6,180 96.5,173.8 99.3,160.6C101.7,149.6 95.2,144.9 80.5,143.3ZM370.5,126.6L371.5,128.4L370.3,128.4L369.6,126.9L368.8,126.9L368.8,128.4L367.6,128.4L367.6,123.8L369.5,123.8C370,123.8 370.4,123.9 370.8,124.2C371.2,124.4 371.3,124.8 371.3,125.4C371.3,125.7 371.2,125.9 371.1,126.1C371,126.3 370.8,126.5 370.5,126.6ZM370.1,125.4C370.1,125.2 370,125 369.9,124.9C369.8,124.8 369.5,124.7 369.3,124.7L368.8,124.7L368.8,126.1L369.3,126.1C369.6,126.1 369.8,126 369.9,125.9C370,125.8 370.1,125.6 370.1,125.4ZM373.8,126.2C373.8,126.9 373.7,127.5 373.4,128C373.2,128.5 372.9,129 372.5,129.5C372.1,129.9 371.6,130.2 371.1,130.4C370.6,130.6 370,130.7 369.4,130.7C368.8,130.7 368.2,130.6 367.7,130.4C367.2,130.2 366.7,129.9 366.3,129.5C365.9,129.1 365.6,128.6 365.4,128C365.2,127.5 365,126.8 365,126.2C365,125.5 365.1,124.9 365.4,124.3C365.6,123.7 365.9,123.2 366.3,122.8C366.7,122.4 367.2,122.1 367.7,121.9C368.2,121.7 368.8,121.6 369.4,121.6C370,121.6 370.6,121.7 371.1,121.9C371.6,122.1 372.1,122.4 372.5,122.8C372.9,123.2 373.2,123.7 373.4,124.3C373.7,124.9 373.8,125.5 373.8,126.2ZM372.7,126.2C372.7,125.7 372.6,125.2 372.4,124.7C372.2,124.2 372,123.9 371.7,123.5C371.4,123.2 371.1,122.9 370.6,122.8C370.2,122.6 369.7,122.5 369.3,122.5C368.8,122.5 368.4,122.6 367.9,122.8C367.5,123 367.1,123.2 366.8,123.5C366.5,123.8 366.3,124.2 366.1,124.7C365.9,125.2 365.8,125.6 365.8,126.2C365.8,126.7 365.9,127.2 366.1,127.7C366.3,128.1 366.5,128.5 366.8,128.8C367.1,129.1 367.4,129.3 367.9,129.5C368.3,129.7 368.8,129.8 369.3,129.8C369.8,129.8 370.2,129.7 370.6,129.5C371,129.3 371.4,129.1 371.7,128.8C372,128.5 372.2,128.1 372.4,127.7C372.6,127.2 372.7,126.7 372.7,126.2Z" style="fill-rule:nonzero;"/>
    </g>
</svg>
